source/img/icon-insta.svg

<svg xmlns="http://www.w3.org/2000/svg" width="17" height="17" viewBox="0 0 97 97"><path d="M12.447 0h72.106A12.156 12.156 0 0197 12.446v72.107A12.156 12.156 0 0184.553 97H12.447A12.156 12.156 0 010 84.553V12.446A12.156 12.156 0 0112.447 0zm58.215 10.774a4.379 4.379 0 00-4.362 4.367v10.453a4.379 4.379 0 004.367 4.368h10.959a4.38 4.38 0 004.366-4.368V15.141a4.379 4.379 0 00-4.366-4.367H70.662zm15.377 30.245H77.5a28.389 28.389 0 011.245 8.322c0 16.136-13.5 29.216-30.154 29.216S18.44 65.478 18.44 49.342a28.334 28.334 0 011.245-8.322h-8.91V82a3.868 3.868 0 003.857 3.857h67.553A3.867 3.867 0 0086.041 82V41.019zM48.59 29.411c-10.759 0-19.482 8.451-19.482 18.878s8.724 18.878 19.482 18.878 19.485-8.452 19.485-18.878-8.723-18.878-19.485-18.878z"/></svg>

<svg xmlns="http://www.w3.org/2000/svg" width="17" height="17" viewBox="0 0 97 97">
  <path d="M12.447,0H84.553A12.156,12.156,0,0,1,97,12.446V84.553A12.156,12.156,0,0,1,84.553,97H12.447A12.156,12.156,0,0,1,0,84.553V12.446A12.156,12.156,0,0,1,12.447,0h0ZM70.662,10.774A4.379,4.379,0,0,0,66.3,15.141V25.594a4.379,4.379,0,0,0,4.367,4.368H81.626a4.38,4.38,0,0,0,4.366-4.368V15.141a4.379,4.379,0,0,0-4.366-4.367H70.662ZM86.039,41.019H77.5a28.389,28.389,0,0,1,1.245,8.322c0,16.136-13.5,29.216-30.154,29.216S18.44,65.478,18.44,49.342a28.334,28.334,0,0,1,1.245-8.322H10.775V82a3.868,3.868,0,0,0,3.857,3.857H82.185A3.867,3.867,0,0,0,86.041,82V41.019h0ZM48.59,29.411c-10.759,0-19.482,8.451-19.482,18.878S37.832,67.167,48.59,67.167s19.485-8.452,19.485-18.878S59.352,29.411,48.59,29.411Z"/>
</svg>
